Numix-GalliumOS/64/mimetypes/application-vnd.oasis.opendocument.chart-template.svg

<svg xmlns="http://www.w3.org/2000/svg" xmlns:xlink="http://www.w3.org/1999/xlink" width="64px" height="64px" viewBox="0 0 64 64" version="1.1">
<g id="surface1">
<path style=" stroke:none;fill-rule:nonzero;fill:rgb(72.156863%,76.470588%,0%);fill-opacity:1;" d="M 10.6875 0 C 9.3125 0 8 1.378906 8 2.8125 L 8 61.1875 C 8 62.539062 9.390625 64 10.6875 64 L 53.3125 64 C 54.609375 64 56 62.539062 56 61.1875 L 56 2.75 C 56 1.402344 54.597656 0 53.25 0 Z M 10.6875 0 "/>
<path style=" stroke:none;fill-rule:nonzero;fill:rgb(0%,0%,0%);fill-opacity:0.196078;" d="M 8 48 L 8 61.335938 C 8 62.632812 9.375 64 10.664062 64 L 53.335938 64 C 54.625 64 56 62.632812 56 61.335938 L 56 48 Z M 8 48 "/>
<path style=" stroke:none;fill-rule:nonzero;fill:rgb(100%,100%,100%);fill-opacity:1;" d="M 34 42 L 34 26 L 38 26 L 38 42 Z M 34 42 "/>
<path style=" stroke:none;fill-rule:nonzero;fill:rgb(100%,100%,100%);fill-opacity:1;" d="M 28 42 L 28 20 L 32 20 L 32 42 Z M 28 42 "/>
<path style=" stroke:none;fill-rule:nonzero;fill:rgb(100%,100%,100%);fill-opacity:1;" d="M 22 42 L 22 30 L 26 30 L 26 42 Z M 22 42 "/>
<path style=" stroke:none;fill-rule:nonzero;fill:rgb(100%,100%,100%);fill-opacity:1;" d="M 40 42 L 40 36 L 44 36 L 44 42 Z M 40 42 "/>
<path style=" stroke:none;fill-rule:nonzero;fill:rgb(100%,100%,100%);fill-opacity:1;" d="M 20.328125 56.28125 C 20.328125 56.816406 20.355469 57.320312 20.386719 57.789062 C 20.445312 58.25 20.539062 58.652344 20.664062 58.996094 C 20.816406 59.335938 21.007812 59.605469 21.257812 59.804688 C 21.511719 60.007812 21.855469 60.109375 22.273438 60.109375 C 22.683594 60.109375 23.015625 60.007812 23.269531 59.804688 C 23.527344 59.605469 23.730469 59.335938 23.863281 58.996094 C 24.003906 58.632812 24.097656 58.230469 24.140625 57.773438 C 24.191406 57.3125 24.214844 56.816406 24.214844 56.28125 C 24.214844 55.753906 24.191406 55.261719 24.140625 54.800781 C 24.097656 54.324219 24.003906 53.921875 23.863281 53.578125 C 23.730469 53.234375 23.535156 52.964844 23.285156 52.765625 C 23.035156 52.5625 22.699219 52.464844 22.273438 52.464844 C 21.855469 52.464844 21.511719 52.5625 21.257812 52.765625 C 21.007812 52.964844 20.816406 53.242188 20.664062 53.59375 C 20.539062 53.9375 20.445312 54.339844 20.386719 54.800781 C 20.355469 55.261719 20.328125 55.753906 20.328125 56.28125 M 17.851562 56.28125 C 17.851562 54.398438 18.246094 52.972656 19.023438 52.019531 C 19.800781 51.046875 20.890625 50.570312 22.273438 50.570312 C 23.710938 50.570312 24.808594 51.046875 25.5625 52.019531 C 26.316406 52.972656 26.691406 54.398438 26.691406 56.28125 C 26.691406 58.171875 26.308594 59.597656 25.546875 60.566406 C 24.777344 61.523438 23.695312 62 22.296875 62 C 20.855469 62 19.753906 61.523438 18.980469 60.566406 C 18.226562 59.597656 17.851562 58.171875 17.851562 56.28125 "/>
<path style=" stroke:none;fill-rule:nonzero;fill:rgb(100%,100%,100%);fill-opacity:1;" d="M 36.640625 50.8125 L 36.640625 52.621094 L 33.417969 52.621094 L 33.417969 61.773438 L 30.953125 61.773438 L 30.953125 52.621094 L 27.722656 52.621094 L 27.722656 50.8125 L 36.640625 50.8125 "/>
<path style=" stroke:none;fill-rule:nonzero;fill:rgb(100%,100%,100%);fill-opacity:1;" d="M 43.003906 62 C 41.269531 62 39.953125 61.507812 39.042969 60.507812 C 38.128906 59.523438 37.667969 58.113281 37.667969 56.28125 C 37.667969 55.378906 37.8125 54.566406 38.089844 53.863281 C 38.363281 53.148438 38.75 52.554688 39.234375 52.070312 C 39.738281 51.578125 40.332031 51.207031 41 50.957031 C 41.6875 50.695312 42.433594 50.570312 43.246094 50.570312 C 43.679688 50.570312 44.066406 50.605469 44.410156 50.671875 C 44.769531 50.730469 45.078125 50.804688 45.339844 50.890625 C 45.605469 50.972656 45.824219 51.058594 46 51.148438 C 46.183594 51.25 46.316406 51.316406 46.410156 51.367188 L 45.78125 53.101562 C 45.472656 52.925781 45.105469 52.773438 44.667969 52.65625 C 44.25 52.53125 43.757812 52.464844 43.203125 52.464844 C 42.820312 52.464844 42.441406 52.53125 42.074219 52.65625 C 41.714844 52.773438 41.394531 52.984375 41.101562 53.277344 C 40.824219 53.558594 40.589844 53.945312 40.40625 54.421875 C 40.238281 54.910156 40.148438 55.511719 40.148438 56.230469 C 40.148438 57.480469 40.390625 58.441406 40.867188 59.113281 C 41.351562 59.773438 42.148438 60.109375 43.246094 60.109375 C 43.875 60.109375 44.402344 60.039062 44.8125 59.914062 C 45.230469 59.78125 45.566406 59.65625 45.816406 59.523438 L 46.433594 61.238281 C 46.09375 61.429688 45.625 61.605469 45.027344 61.773438 C 44.441406 61.925781 43.773438 62 43.003906 62 "/>
</g>
</svg>

<svg xmlns="http://www.w3.org/2000/svg" viewBox="0 0 64 64">
 <g>
  <path d="m 10.688 0 c -1.375 0 -2.688 1.379 -2.688 2.813 l 0 58.38 c 0 1.352 1.391 2.813 2.688 2.813 l 42.625 0 c 1.297 0 2.688 -1.461 2.688 -2.813 l 0 -58.44 c 0 -1.348 -1.402 -2.75 -2.75 -2.75 m -42.563 0" style="fill:#b8c200;fill-opacity:1;stroke:none;fill-rule:nonzero"/>
  <path d="m 8 48 l 0 13.336 c 0 1.297 1.375 2.664 2.664 2.664 l 42.672 0 c 1.289 0 2.664 -1.367 2.664 -2.664 l 0 -13.336 m -48 0" style="fill:#000;fill-opacity:0.196;stroke:none;fill-rule:nonzero"/>
  <path d="m 34 42 l 0 -16 l 4 0 l 0 16 m -4 0" style="fill:#fff;fill-opacity:1;stroke:none;fill-rule:nonzero"/>
  <path d="m 28 42 l 0 -22 l 4 0 l 0 22 m -4 0" style="fill:#fff;fill-opacity:1;stroke:none;fill-rule:nonzero"/>
  <path d="m 22 42 l 0 -12 l 4 0 l 0 12 m -4 0" style="fill:#fff;fill-opacity:1;stroke:none;fill-rule:nonzero"/>
  <path d="m 40 42 l 0 -6 l 4 0 l 0 6 m -4 0" style="fill:#fff;fill-opacity:1;stroke:none;fill-rule:nonzero"/>
  <path d="m 20.328 56.28 c 0 0.535 0.027 1.039 0.059 1.508 c 0.059 0.461 0.152 0.863 0.277 1.207 c 0.152 0.34 0.344 0.609 0.594 0.809 c 0.254 0.203 0.598 0.305 1.016 0.305 c 0.41 0 0.742 -0.102 0.996 -0.305 c 0.258 -0.199 0.461 -0.469 0.594 -0.809 c 0.141 -0.363 0.234 -0.766 0.277 -1.223 c 0.051 -0.461 0.074 -0.957 0.074 -1.492 c 0 -0.527 -0.023 -1.02 -0.074 -1.48 c -0.043 -0.477 -0.137 -0.879 -0.277 -1.223 c -0.133 -0.344 -0.328 -0.613 -0.578 -0.813 c -0.25 -0.203 -0.586 -0.301 -1.012 -0.301 c -0.418 0 -0.762 0.098 -1.016 0.301 c -0.25 0.199 -0.441 0.477 -0.594 0.828 c -0.125 0.344 -0.219 0.746 -0.277 1.207 c -0.031 0.461 -0.059 0.953 -0.059 1.48 m -2.477 0 c 0 -1.883 0.395 -3.309 1.172 -4.262 c 0.777 -0.973 1.867 -1.449 3.25 -1.449 c 1.438 0 2.535 0.477 3.289 1.449 c 0.754 0.953 1.129 2.379 1.129 4.262 c 0 1.891 -0.383 3.316 -1.145 4.285 c -0.77 0.957 -1.852 1.434 -3.25 1.434 c -1.441 0 -2.543 -0.477 -3.316 -1.434 c -0.754 -0.969 -1.129 -2.395 -1.129 -4.285" style="fill:#fff;fill-opacity:1;stroke:none;fill-rule:nonzero"/>
  <path d="m 36.641 50.813 l 0 1.809 l -3.223 0 l 0 9.152 l -2.465 0 l 0 -9.152 l -3.23 0 l 0 -1.809 l 8.918 0" style="fill:#fff;fill-opacity:1;stroke:none;fill-rule:nonzero"/>
  <path d="m 43 62 c -1.734 0 -3.051 -0.492 -3.961 -1.492 c -0.914 -0.984 -1.375 -2.395 -1.375 -4.227 c 0 -0.902 0.145 -1.715 0.422 -2.418 c 0.273 -0.715 0.66 -1.309 1.145 -1.793 c 0.504 -0.492 1.098 -0.863 1.766 -1.113 c 0.688 -0.262 1.434 -0.387 2.246 -0.387 c 0.434 0 0.82 0.035 1.164 0.102 c 0.359 0.059 0.668 0.133 0.93 0.219 c 0.266 0.082 0.484 0.168 0.66 0.258 c 0.184 0.102 0.316 0.168 0.41 0.219 l -0.629 1.734 c -0.309 -0.176 -0.676 -0.328 -1.113 -0.445 c -0.418 -0.125 -0.91 -0.191 -1.465 -0.191 c -0.383 0 -0.762 0.066 -1.129 0.191 c -0.359 0.117 -0.68 0.328 -0.973 0.621 c -0.277 0.281 -0.512 0.668 -0.695 1.145 c -0.168 0.488 -0.258 1.09 -0.258 1.809 c 0 1.25 0.242 2.211 0.719 2.883 c 0.484 0.66 1.281 0.996 2.379 0.996 c 0.629 0 1.156 -0.07 1.566 -0.195 c 0.418 -0.133 0.754 -0.258 1 -0.391 l 0.617 1.715 c -0.34 0.191 -0.809 0.367 -1.406 0.535 c -0.586 0.152 -1.254 0.227 -2.023 0.227" style="fill:#fff;fill-opacity:1;stroke:none;fill-rule:nonzero"/>
 </g>
</svg>
